remix/System/apps-2-fill.svg

<svg viewBox="0 0 24 24" fill="currentColor" xmlns="http://www.w3.org/2000/svg"><path d="M7 11.5C4.51472 11.5 2.5 9.48528 2.5 7C2.5 4.51472 4.51472 2.5 7 2.5C9.48528 2.5 11.5 4.51472 11.5 7C11.5 9.48528 9.48528 11.5 7 11.5ZM7 21.5C4.51472 21.5 2.5 19.4853 2.5 17C2.5 14.5147 4.51472 12.5 7 12.5C9.48528 12.5 11.5 14.5147 11.5 17C11.5 19.4853 9.48528 21.5 7 21.5ZM17 11.5C14.5147 11.5 12.5 9.48528 12.5 7C12.5 4.51472 14.5147 2.5 17 2.5C19.4853 2.5 21.5 4.51472 21.5 7C21.5 9.48528 19.4853 11.5 17 11.5ZM17 21.5C14.5147 21.5 12.5 19.4853 12.5 17C12.5 14.5147 14.5147 12.5 17 12.5C19.4853 12.5 21.5 14.5147 21.5 17C21.5 19.4853 19.4853 21.5 17 21.5Z"/></svg>

<svg viewBox="0 0 24 24" xmlns="http://www.w3.org/2000/svg"><path fill="none" d="M0 0h24v24H0Z"/><path d="M7 11.5v0c-2.49 0-4.5-2.02-4.5-4.5 0-2.49 2.01-4.5 4.5-4.5v0c2.48 0 4.5 2.01 4.5 4.5 0 2.48-2.02 4.5-4.5 4.5Zm0 10v0c-2.49 0-4.5-2.02-4.5-4.5 0-2.49 2.01-4.5 4.5-4.5v0c2.48 0 4.5 2.01 4.5 4.5 0 2.48-2.02 4.5-4.5 4.5Zm10-10v0c-2.49 0-4.5-2.02-4.5-4.5 0-2.49 2.01-4.5 4.5-4.5v0c2.48 0 4.5 2.01 4.5 4.5 0 2.48-2.02 4.5-4.5 4.5Zm0 10v0c-2.49 0-4.5-2.02-4.5-4.5 0-2.49 2.01-4.5 4.5-4.5v0c2.48 0 4.5 2.01 4.5 4.5 0 2.48-2.02 4.5-4.5 4.5Z"/></svg>
